packages/icons/src/diamond-arrow-turn-right-fill.svg

<svg width="24" height="24" viewBox="0 0 24 24" fill="none" xmlns="http://www.w3.org/2000/svg">
<path fill-rule="evenodd" clip-rule="evenodd" d="M13.4199 1.57999L22.4299 10.59C23.1999 11.39 23.1899 12.65 22.3999 13.41L13.4099 22.4C13.0199 22.79 12.5099 22.98 11.9999 22.98C11.4899 22.98 10.9799 22.79 10.5899 22.4L1.58988 13.4C0.809883 12.62 0.809883 11.36 1.58988 10.58L10.5899 1.57999C11.3499 0.819989 12.6699 0.829989 13.4199 1.57999ZM8 15V11C8 10.45 8.45 10 9 10H14V7.5L17.5 11L14 14.5V12H10V15H8Z" fill="currentColor"/>
</svg>

<svg xmlns="http://www.w3.org/2000/svg" width="24" height="24" fill="none" viewBox="0 0 24 24">
  <path fill="#000" fill-rule="evenodd" d="m13.42 1.58 9.01 9.01c.77.8.76 2.06-.03 2.82l-8.99 8.99c-.39.39-.9.58-1.41.58-.51 0-1.02-.19-1.41-.58l-9-9c-.78-.78-.78-2.04 0-2.82l9-9c.76-.76 2.08-.75 2.83 0ZM8 15v-4c0-.55.45-1 1-1h5V7.5l3.5 3.5-3.5 3.5V12h-4v3H8Z" clip-rule="evenodd"/>
</svg>
